X:187
T:GAVOTTE 1
Z: Yves BELOTTEAU
M:6/8
L:1/8
Q:1/4=88
K:C 
|Gc/2cA/2 Bc/2d3/2|cB/2A3/2 G3/2G3/2|Gc/2cA/2 Bc/2d3/2|cB/2A3/2 G3/2G3/2
|
G/2c/2e/2gf/2 ef/2e3/2|dc/2ed/2 c3/2c3/2|G/2c/2e/2gf/2 ef/2e3/2|dc/2ed/2
 c3/2c3/2|
